src/assets/icons/Matrix/Rotador/matrix9_c.svg

<?xml version="1.0" encoding="UTF-8"?>
<svg id="Capa_2" data-name="Capa 2" xmlns="http://www.w3.org/2000/svg" viewBox="0 0 38.75 1.67">
  <defs>
    <style>
      .cls-1 {
        fill: none;
        stroke: #000;
        stroke-linecap: round;
        stroke-linejoin: round;
        stroke-width: .05px;
      }
    </style>
  </defs>
  <g id="Capa_1-2" data-name="Capa 1">
    <g>
      <polyline class="cls-1" points="19.37 1.17 19.37 1.11 19.37 1.08 19.34 1.08 19.34 1.05 13.94 1.05"/>
      <polyline class="cls-1" points="12.95 .86 12.95 1.02 12.95 1.05 12.92 1.05 12.89 1.05 11.94 1.05"/>
      <polyline class="cls-1" points="10.91 .86 10.91 1.02 10.91 1.05 10.88 1.05 10.7 1.05 10.67 1.05 10.67 1.08 10.64 1.08 10.64 1.11 10.64 1.29 10.64 1.32 10.64 1.35 10.67 1.35 10.7 1.35 10.85 1.35 10.88 1.35 10.91 1.38 10.91 1.41 10.91 1.59 10.91 1.61 10.88 1.64 10.85 1.64 10.19 1.64 10.16 1.64 10.13 1.61 10.13 1.59 10.13 1.41 10.13 1.38 10.16 1.35 10.19 1.35 10.41 1.35 10.44 1.35 10.47 1.35 10.47 1.32 10.47 1.29 10.47 1.11 10.47 1.08 10.44 1.08 10.44 1.05 10.41 1.05 9.89 1.05"/>
      <polyline class="cls-1" points="8.87 .86 8.87 1.02 8.87 1.05 8.84 1.05 7.85 1.05"/>
      <polyline class="cls-1" points="6.86 .86 6.86 1.02 6.83 1.05 6.8 1.05 5.81 1.05"/>
      <polyline class="cls-1" points="4.82 .86 4.82 1.02 4.82 1.05 4.79 1.05 4.76 1.05 3.8 1.05"/>
      <polyline class="cls-1" points="2.78 .86 2.78 1.02 2.78 1.05 2.75 1.05 2.54 1.05 2.51 1.08 2.51 1.11 2.48 1.11 2.48 1.59 2.48 1.61 2.48 1.64 2.45 1.64 2.33 1.64 .05 1.64 .03 1.64 .03 1.61 .03 1.59 .03 1.53 .03 1.5 .03 1.47 .05 1.47 .23 1.47 .56 1.47 .59 1.5 .59 1.47 2.28 1.47 2.3 1.47 2.3 1.44 2.33 1.44 2.33 1.41 2.33 1.11 2.3 1.08 2.28 1.05 1.44 1.05 1.41 1.05 1.41 1.02 1.41 .92 1.41 .89 1.44 .89 1.44 .86 2.39 .86"/>
      <line class="cls-1" x1="3.8" y1=".86" x2="4.44" y2=".86"/>
      <line class="cls-1" x1="5.81" y1=".86" x2="6.47" y2=".86"/>
      <line class="cls-1" x1="7.85" y1=".86" x2="8.51" y2=".86"/>
      <line class="cls-1" x1="9.89" y1=".86" x2="10.53" y2=".86"/>
      <line class="cls-1" x1="11.94" y1=".86" x2="12.56" y2=".86"/>
      <polyline class="cls-1" points="13.94 .86 19.5 .86 19.53 .86 19.53 .89 19.55 .89 19.55 .92 19.55 1.05 19.55 1.08 19.58 1.08 19.61 1.08 20.45 1.08 20.48 1.08 20.48 1.11 20.48 1.14 20.48 1.32 20.48 1.35 20.48 1.38 20.45 1.41 20.45 1.44 20.42 1.44 20.39 1.44 20.36 1.44"/>
      <polyline class="cls-1" points="19.37 1.17 19.37 1.2 19.37 1.23 19.41 1.23 19.41 1.26 19.44 1.26 20.25 1.26 20.25 1.32 20.28 1.35 20.28 1.38 20.28 1.41 20.3 1.44 20.33 1.44 20.36 1.44"/>
      <path class="cls-1" d="m3.26.43c-.04-.21-.2-.37-.4-.4-.21-.04-.41.06-.51.24-.1.18-.08.41.05.57"/>
      <path class="cls-1" d="m3.08.46c-.03-.16-.18-.28-.35-.26-.17.02-.29.16-.28.33,0,.17.15.3.31.3"/>
      <path class="cls-1" d="m3.3.43c.04.24.25.41.49.41"/>
      <path class="cls-1" d="m3.13.46c.06.32.34.56.66.56"/>
      <path class="cls-1" d="m5.3.43c-.04-.21-.2-.37-.4-.4-.21-.04-.41.06-.51.24-.1.18-.08.41.05.57"/>
      <path class="cls-1" d="m5.12.46c-.03-.16-.18-.28-.35-.26-.17.02-.29.16-.28.33,0,.17.15.3.31.3"/>
      <path class="cls-1" d="m5.31.43c.04.24.25.41.49.41"/>
      <path class="cls-1" d="m5.14.46c.06.32.34.56.66.56"/>
      <path class="cls-1" d="m7.34.43c-.04-.21-.2-.37-.4-.4-.21-.04-.41.06-.51.24-.1.18-.08.41.05.57"/>
      <path class="cls-1" d="m7.16.46c-.03-.16-.18-.28-.35-.26-.17.02-.29.16-.28.33,0,.17.15.3.31.3"/>
      <path class="cls-1" d="m7.35.43c.04.24.25.41.49.41"/>
      <path class="cls-1" d="m7.18.46c.06.32.34.56.66.56"/>
      <path class="cls-1" d="m9.35.43c-.04-.21-.2-.37-.4-.4-.21-.04-.41.06-.51.24-.1.18-.08.41.05.57"/>
      <path class="cls-1" d="m9.17.46c-.03-.16-.18-.28-.35-.26-.17.02-.29.16-.28.33,0,.17.15.3.31.3"/>
      <path class="cls-1" d="m9.39.43c.04.24.25.41.49.41"/>
      <path class="cls-1" d="m9.22.46c.06.32.34.56.66.56"/>
      <path class="cls-1" d="m11.39.43c-.04-.21-.2-.37-.4-.4-.21-.04-.41.06-.51.24-.1.18-.08.41.05.57"/>
      <path class="cls-1" d="m11.21.46c-.03-.16-.18-.28-.35-.26-.17.02-.29.16-.28.33,0,.17.15.3.31.3"/>
      <path class="cls-1" d="m11.43.43c.04.24.25.41.49.41"/>
      <path class="cls-1" d="m11.26.46c.06.32.34.56.66.56"/>
      <path class="cls-1" d="m13.43.43c-.04-.21-.2-.37-.4-.4-.21-.04-.41.06-.51.24-.1.18-.08.41.05.57"/>
      <path class="cls-1" d="m13.25.46c-.03-.16-.18-.28-.35-.26-.17.02-.29.16-.28.33,0,.17.15.3.31.3"/>
      <path class="cls-1" d="m13.44.43c.04.24.25.41.49.41"/>
      <path class="cls-1" d="m13.27.46c.06.32.34.56.66.56"/>
      <polyline class="cls-1" points="37.58 1.17 37.58 1.11 37.58 1.08 37.55 1.05 32.19 1.05"/>
      <polyline class="cls-1" points="31.16 .86 31.16 1.02 31.16 1.05 31.13 1.05 30.14 1.05"/>
      <polyline class="cls-1" points="29.12 .86 29.12 1.02 29.12 1.05 29.09 1.05 28.91 1.05 28.88 1.05 28.88 1.08 28.85 1.08 28.85 1.11 28.85 1.29 28.85 1.32 28.88 1.32 28.88 1.35 28.91 1.35 29.09 1.35 29.12 1.35 29.12 1.38 29.12 1.41 29.12 1.59 29.12 1.61 29.12 1.64 29.09 1.64 28.41 1.64 28.37 1.64 28.37 1.61 28.34 1.61 28.34 1.59 28.34 1.41 28.34 1.38 28.37 1.38 28.37 1.35 28.41 1.35 28.64 1.35 28.67 1.35 28.67 1.32 28.67 1.29 28.67 1.11 28.67 1.08 28.64 1.05 28.1 1.05"/>
      <polyline class="cls-1" points="27.11 .86 27.11 1.02 27.08 1.05 27.05 1.05 26.06 1.05"/>
      <polyline class="cls-1" points="25.07 .86 25.07 1.02 25.07 1.05 25.04 1.05 25.01 1.05 24.05 1.05"/>
      <polyline class="cls-1" points="23.03 .86 23.03 1.02 23.03 1.05 23 1.05 22.01 1.05"/>
      <polyline class="cls-1" points="21.03 .86 21.03 1.02 21 1.02 21 1.05 20.97 1.05 20.75 1.05 20.75 1.08 20.72 1.08 20.72 1.11 20.72 1.59 20.72 1.61 20.69 1.61 20.69 1.64 20.66 1.64 20.54 1.64 18.29 1.64 18.26 1.64 18.23 1.61 18.23 1.59 18.23 1.53 18.23 1.5 18.26 1.47 18.29 1.47 18.44 1.47 18.78 1.47 18.8 1.5 18.83 1.47 20.48 1.47 20.51 1.47 20.51 1.44 20.54 1.44 20.54 1.41 20.54 1.11 20.54 1.08 20.51 1.08 20.51 1.05 20.48 1.05 19.67 1.05 19.64 1.05 19.61 1.05 19.61 1.02 19.61 .92 19.61 .89 19.64 .89 19.64 .86 19.67 .86 20.63 .86"/>
      <line class="cls-1" x1="22.01" y1=".86" x2="22.64" y2=".86"/>
      <line class="cls-1" x1="24.05" y1=".86" x2="24.69" y2=".86"/>
      <line class="cls-1" x1="26.06" y1=".86" x2="26.72" y2=".86"/>
      <line class="cls-1" x1="28.1" y1=".86" x2="28.76" y2=".86"/>
      <line class="cls-1" x1="30.14" y1=".86" x2="30.78" y2=".86"/>
      <polyline class="cls-1" points="32.19 .86 37.73 .86 37.76 .89 37.76 .92 37.76 1.05 37.79 1.05 37.79 1.08 37.82 1.08 38.66 1.08 38.69 1.08 38.69 1.11 38.72 1.11 38.72 1.14 38.72 1.32 38.72 1.35 38.69 1.38 38.69 1.41 38.66 1.44 38.63 1.44 38.6 1.44"/>
      <polyline class="cls-1" points="37.58 1.17 37.58 1.2 37.61 1.23 37.61 1.26 37.64 1.26 38.48 1.26 38.48 1.32 38.48 1.35 38.48 1.38 38.51 1.41 38.51 1.44 38.54 1.44 38.57 1.44 38.6 1.44"/>
      <path class="cls-1" d="m21.5.43c-.04-.21-.2-.37-.4-.4-.21-.04-.41.06-.51.24-.1.18-.08.41.05.57"/>
      <path class="cls-1" d="m21.32.46c-.03-.16-.18-.28-.35-.26-.17.02-.29.16-.28.33,0,.17.15.3.31.3"/>
      <path class="cls-1" d="m21.51.43c.04.24.25.41.49.41"/>
      <path class="cls-1" d="m21.34.46c.06.32.34.56.66.56"/>
      <path class="cls-1" d="m23.51.43c-.04-.21-.2-.37-.4-.4-.21-.04-.41.06-.51.24-.1.18-.08.41.05.57"/>
      <path class="cls-1" d="m23.33.46c-.03-.16-.18-.28-.35-.26-.17.02-.29.16-.28.33,0,.17.15.3.31.3"/>
      <path class="cls-1" d="m23.55.43c.04.24.25.41.49.41"/>
      <path class="cls-1" d="m23.38.46c.06.32.34.56.66.56"/>
      <path class="cls-1" d="m25.55.43c-.04-.21-.2-.37-.4-.4-.21-.04-.41.06-.51.24-.1.18-.08.41.05.57"/>
      <path class="cls-1" d="m25.37.46c-.03-.16-.18-.28-.35-.26-.17.02-.29.16-.28.33,0,.17.15.3.31.3"/>
      <path class="cls-1" d="m25.56.43c.04.24.25.41.49.41"/>
      <path class="cls-1" d="m25.39.46c.06.32.34.56.66.56"/>
      <path class="cls-1" d="m27.59.43c-.04-.21-.2-.37-.4-.4-.21-.04-.41.06-.51.24-.1.18-.08.41.05.57"/>
      <path class="cls-1" d="m27.41.46c-.03-.16-.18-.28-.35-.26-.17.02-.29.16-.28.33,0,.17.15.3.31.3"/>
      <path class="cls-1" d="m27.6.43c.04.24.25.41.49.41"/>
      <path class="cls-1" d="m27.43.46c.06.32.34.56.66.56"/>
      <path class="cls-1" d="m29.6.43c-.04-.21-.2-.37-.4-.4-.21-.04-.41.06-.51.24-.1.18-.08.41.05.57"/>
      <path class="cls-1" d="m29.42.46c-.03-.16-.18-.28-.35-.26-.17.02-.29.16-.28.33,0,.17.15.3.31.3"/>
      <path class="cls-1" d="m29.64.43c.04.24.25.41.49.41"/>
      <path class="cls-1" d="m29.47.46c.06.32.34.56.66.56"/>
      <path class="cls-1" d="m31.64.43c-.04-.21-.2-.37-.4-.4-.21-.04-.41.06-.51.24-.1.18-.08.41.05.57"/>
      <path class="cls-1" d="m31.46.46c-.03-.16-.18-.28-.35-.26-.17.02-.29.16-.28.33,0,.17.15.3.31.3"/>
      <path class="cls-1" d="m31.68.43c.04.24.25.41.49.41"/>
      <path class="cls-1" d="m31.51.46c.06.32.34.56.66.56"/>
    </g>
  </g>
</svg>

<?xml version="1.0" encoding="UTF-8" standalone="no"?>
<svg
   id="Capa_2"
   data-name="Capa 2"
   viewBox="0 0 20.5 1.6687162"
   version="1.1"
   sodipodi:docname="matrix9_c.svg"
   width="20.5"
   height="1.6687162"
   inkscape:version="1.3.2 (091e20e, 2023-11-25, custom)"
   xmlns:inkscape="http://www.inkscape.org/namespaces/inkscape"
   xmlns:sodipodi="http://sodipodi.sourceforge.net/DTD/sodipodi-0.dtd"
   xmlns="http://www.w3.org/2000/svg"
   xmlns:svg="http://www.w3.org/2000/svg">
  <sodipodi:namedview
     id="namedview69"
     pagecolor="#ffffff"
     bordercolor="#000000"
     borderopacity="0.25"
     inkscape:showpageshadow="2"
     inkscape:pageopacity="0.0"
     inkscape:pagecheckerboard="0"
     inkscape:deskcolor="#d1d1d1"
     inkscape:zoom="211.50968"
     inkscape:cx="22.162107"
     inkscape:cy="1.2363501"
     inkscape:window-width="2560"
     inkscape:window-height="1369"
     inkscape:window-x="-8"
     inkscape:window-y="-8"
     inkscape:window-maximized="1"
     inkscape:current-layer="g69" />
  <defs
     id="defs1">
    <style
       id="style1">
      .cls-1 {
        fill: none;
        stroke: #000;
        stroke-linecap: round;
        stroke-linejoin: round;
        stroke-width: .05px;
      }
    </style>
  </defs>
  <g
     id="Capa_1-2"
     data-name="Capa 1"
     transform="translate(-0.005,0.00371618)">
    <g
       id="g69">
      <polyline
         class="cls-1"
         points="19.37 1.17 19.37 1.11 19.37 1.08 19.34 1.08 19.34 1.05 13.94 1.05"
         id="polyline1" />
      <polyline
         class="cls-1"
         points="12.95 .86 12.95 1.02 12.95 1.05 12.92 1.05 12.89 1.05 11.94 1.05"
         id="polyline2" />
      <polyline
         class="cls-1"
         points="10.91 .86 10.91 1.02 10.91 1.05 10.88 1.05 10.7 1.05 10.67 1.05 10.67 1.08 10.64 1.08 10.64 1.11 10.64 1.29 10.64 1.32 10.64 1.35 10.67 1.35 10.7 1.35 10.85 1.35 10.88 1.35 10.91 1.38 10.91 1.41 10.91 1.59 10.91 1.61 10.88 1.64 10.85 1.64 10.19 1.64 10.16 1.64 10.13 1.61 10.13 1.59 10.13 1.41 10.13 1.38 10.16 1.35 10.19 1.35 10.41 1.35 10.44 1.35 10.47 1.35 10.47 1.32 10.47 1.29 10.47 1.11 10.47 1.08 10.44 1.08 10.44 1.05 10.41 1.05 9.89 1.05"
         id="polyline3" />
      <polyline
         class="cls-1"
         points="8.87 .86 8.87 1.02 8.87 1.05 8.84 1.05 7.85 1.05"
         id="polyline4" />
      <polyline
         class="cls-1"
         points="6.86 .86 6.86 1.02 6.83 1.05 6.8 1.05 5.81 1.05"
         id="polyline5" />
      <polyline
         class="cls-1"
         points="4.82 .86 4.82 1.02 4.82 1.05 4.79 1.05 4.76 1.05 3.8 1.05"
         id="polyline6" />
      <polyline
         class="cls-1"
         points="2.78 .86 2.78 1.02 2.78 1.05 2.75 1.05 2.54 1.05 2.51 1.08 2.51 1.11 2.48 1.11 2.48 1.59 2.48 1.61 2.48 1.64 2.45 1.64 2.33 1.64 .05 1.64 .03 1.64 .03 1.61 .03 1.59 .03 1.53 .03 1.5 .03 1.47 .05 1.47 .23 1.47 .56 1.47 .59 1.5 .59 1.47 2.28 1.47 2.3 1.47 2.3 1.44 2.33 1.44 2.33 1.41 2.33 1.11 2.3 1.08 2.28 1.05 1.44 1.05 1.41 1.05 1.41 1.02 1.41 .92 1.41 .89 1.44 .89 1.44 .86 2.39 .86"
         id="polyline7" />
      <line
         class="cls-1"
         x1="3.8"
         y1="0.86000001"
         x2="4.4400001"
         y2="0.86000001"
         id="line7" />
      <line
         class="cls-1"
         x1="5.8099999"
         y1="0.86000001"
         x2="6.4699998"
         y2="0.86000001"
         id="line8" />
      <line
         class="cls-1"
         x1="7.8499999"
         y1="0.86000001"
         x2="8.5100002"
         y2="0.86000001"
         id="line9" />
      <line
         class="cls-1"
         x1="9.8900003"
         y1="0.86000001"
         x2="10.53"
         y2="0.86000001"
         id="line10" />
      <line
         class="cls-1"
         x1="11.94"
         y1="0.86000001"
         x2="12.56"
         y2="0.86000001"
         id="line11" />
      <polyline
         class="cls-1"
         points="13.94 .86 19.5 .86 19.53 .86 19.53 .89 19.55 .89 19.55 .92 19.55 1.05 19.55 1.08 19.58 1.08 19.61 1.08 20.45 1.08 20.48 1.08 20.48 1.11 20.48 1.14 20.48 1.32 20.48 1.35 20.48 1.38 20.45 1.41 20.45 1.44 20.42 1.44 20.39 1.44 20.36 1.44"
         id="polyline11" />
      <polyline
         class="cls-1"
         points="19.37 1.17 19.37 1.2 19.37 1.23 19.41 1.23 19.41 1.26 19.44 1.26 20.25 1.26 20.25 1.32 20.28 1.35 20.28 1.38 20.28 1.41 20.3 1.44 20.33 1.44 20.36 1.44"
         id="polyline12" />
      <path
         class="cls-1"
         d="M 3.26,0.43 C 3.22,0.22 3.06,0.06 2.86,0.03 2.65,-0.01 2.45,0.09 2.35,0.27 2.25,0.45 2.27,0.68 2.4,0.84"
         id="path12" />
      <path
         class="cls-1"
         d="M 3.08,0.46 C 3.05,0.3 2.9,0.18 2.73,0.2 2.56,0.22 2.44,0.36 2.45,0.53 c 0,0.17 0.15,0.3 0.31,0.3"
         id="path13" />
      <path
         class="cls-1"
         d="M 3.3,0.43 C 3.34,0.67 3.55,0.84 3.79,0.84"
         id="path14" />
      <path
         class="cls-1"
         d="M 3.13,0.46 C 3.19,0.78 3.47,1.02 3.79,1.02"
         id="path15" />
      <path
         class="cls-1"
         d="M 5.3,0.43 C 5.26,0.22 5.1,0.06 4.9,0.03 4.69,-0.01 4.49,0.09 4.39,0.27 4.29,0.45 4.31,0.68 4.44,0.84"
         id="path16" />
      <path
         class="cls-1"
         d="M 5.12,0.46 C 5.09,0.3 4.94,0.18 4.77,0.2 4.6,0.22 4.48,0.36 4.49,0.53 c 0,0.17 0.15,0.3 0.31,0.3"
         id="path17" />
      <path
         class="cls-1"
         d="M 5.31,0.43 C 5.35,0.67 5.56,0.84 5.8,0.84"
         id="path18" />
      <path
         class="cls-1"
         d="M 5.14,0.46 C 5.2,0.78 5.48,1.02 5.8,1.02"
         id="path19" />
      <path
         class="cls-1"
         d="M 7.34,0.43 C 7.3,0.22 7.14,0.06 6.94,0.03 6.73,-0.01 6.53,0.09 6.43,0.27 6.33,0.45 6.35,0.68 6.48,0.84"
         id="path20" />
      <path
         class="cls-1"
         d="M 7.16,0.46 C 7.13,0.3 6.98,0.18 6.81,0.2 6.64,0.22 6.52,0.36 6.53,0.53 c 0,0.17 0.15,0.3 0.31,0.3"
         id="path21" />
      <path
         class="cls-1"
         d="M 7.35,0.43 C 7.39,0.67 7.6,0.84 7.84,0.84"
         id="path22" />
      <path
         class="cls-1"
         d="M 7.18,0.46 C 7.24,0.78 7.52,1.02 7.84,1.02"
         id="path23" />
      <path
         class="cls-1"
         d="M 9.35,0.43 C 9.31,0.22 9.15,0.06 8.95,0.03 8.74,-0.01 8.54,0.09 8.44,0.27 8.34,0.45 8.36,0.68 8.49,0.84"
         id="path24" />
      <path
         class="cls-1"
         d="M 9.17,0.46 C 9.14,0.3 8.99,0.18 8.82,0.2 8.65,0.22 8.53,0.36 8.54,0.53 c 0,0.17 0.15,0.3 0.31,0.3"
         id="path25" />
      <path
         class="cls-1"
         d="M 9.39,0.43 C 9.43,0.67 9.64,0.84 9.88,0.84"
         id="path26" />
      <path
         class="cls-1"
         d="M 9.22,0.46 C 9.28,0.78 9.56,1.02 9.88,1.02"
         id="path27" />
      <path
         class="cls-1"
         d="m 11.39,0.43 c -0.04,-0.21 -0.2,-0.37 -0.4,-0.4 -0.21,-0.04 -0.41,0.06 -0.51,0.24 -0.1,0.18 -0.08,0.41 0.05,0.57"
         id="path28" />
      <path
         class="cls-1"
         d="M 11.21,0.46 C 11.18,0.3 11.03,0.18 10.86,0.2 c -0.17,0.02 -0.29,0.16 -0.28,0.33 0,0.17 0.15,0.3 0.31,0.3"
         id="path29" />
      <path
         class="cls-1"
         d="m 11.43,0.43 c 0.04,0.24 0.25,0.41 0.49,0.41"
         id="path30" />
      <path
         class="cls-1"
         d="m 11.26,0.46 c 0.06,0.32 0.34,0.56 0.66,0.56"
         id="path31" />
      <path
         class="cls-1"
         d="m 13.43,0.43 c -0.04,-0.21 -0.2,-0.37 -0.4,-0.4 -0.21,-0.04 -0.41,0.06 -0.51,0.24 -0.1,0.18 -0.08,0.41 0.05,0.57"
         id="path32" />
      <path
         class="cls-1"
         d="M 13.25,0.46 C 13.22,0.3 13.07,0.18 12.9,0.2 c -0.17,0.02 -0.29,0.16 -0.28,0.33 0,0.17 0.15,0.3 0.31,0.3"
         id="path33" />
      <path
         class="cls-1"
         d="m 13.44,0.43 c 0.04,0.24 0.25,0.41 0.49,0.41"
         id="path34" />
      <path
         class="cls-1"
         d="m 13.27,0.46 c 0.06,0.32 0.34,0.56 0.66,0.56"
         id="path35" />
    </g>
  </g>
</svg>
